X:1
T:L'Emergence
C:Laurence Beaudry
Z:robin.beech@mcgill.ca
R:reel
M:4/4
L:/8
K:Em
EBGB EBeB | EBGB cBA2 | FADA FAdA | agfa geBG |
EBGB EBeB | EBGB cdA2 | FADA FAdf |1 geBG FFGA :|2 geBG FG[B,2E2] |:
AecA EFGE | Aec=f gae2 | d=fed cdcA | ^GBdf edcB | 
AecA EFGE | Aecf gfe2 | dafd cgec |1 BdcB ccBc :|2 BdcB A4 |]
